front/src/assets/icons/attach.svg

<?xml version="1.0" encoding="UTF-8" standalone="no"?>
<!-- Uploaded to: SVG Repo, www.svgrepo.com, Generator: SVG Repo Mixer Tools -->
<svg width="800px" height="800px" viewBox="-8 0 32 32" version="1.1" xmlns="http://www.w3.org/2000/svg" xmlns:xlink="http://www.w3.org/1999/xlink" xmlns:sketch="http://www.bohemiancoding.com/sketch/ns">
    
    <title>attachment</title>
    <desc>Created with Sketch Beta.</desc>
    <defs>

</defs>
    <g id="Page-1" stroke="none" stroke-width="1" fill="none" fill-rule="evenodd" sketch:type="MSPage">
        <g id="Icon-Set-Filled" sketch:type="MSLayerGroup" transform="translate(-214.000000, -153.000000)" fill="#009EE0">
            <path d="M228,157 L228,177 C228,180.313 225.313,183 222,183 C218.687,183 216,180.313 216,177 L216,159 C216,156.791 217.791,155 220,155 C222.209,155 224,156.791 224,159 L224,177 C224,178.104 223.104,179 222,179 C220.896,179 220,178.104 220,177 L220,161 L218,161 L218,177 C218,179.209 219.791,181 222,181 C224.209,181 226,179.209 226,177 L226,159 C226,155.687 223.313,153 220,153 C216.687,153 214,155.687 214,159 L214,178 C214.493,181.945 217.921,185 222,185 C226.079,185 229.507,181.945 230,178 L230,157 L228,157" id="attachment" sketch:type="MSShapeGroup">

</path>
        </g>
    </g>
</svg>

<?xml version="1.0" encoding="UTF-8" standalone="no"?>
<svg
    xmlns="http://www.w3.org/2000/svg"
    width="800"
    height="800"
    viewBox="-8 0 32 32"
  >
    <g id="Page-1" fill="none" fillRule="evenodd" stroke="none" strokeWidth="1">
      <g id="Icon-Set-Filled" fill="#009EE0" transform="translate(-214 -153)">
        <path
          id="attachment"
          d="M228 157v20a6 6 0 0 1-12 0v-18a4 4 0 0 1 8 0v18a2 2 0 0 1-4 0v-16h-2v16a4 4 0 0 0 8 0v-18a6 6 0 0 0-12 0v19c.493 3.945 3.921 7 8 7s7.507-3.055 8-7v-21z"
        ></path>
      </g>
    </g>
  </svg>
